packages/kaspersky-hexa-ui-icons/src/iconsSVGs/16/JobTitle.svg

<svg width="16" height="16" viewBox="0 0 16 16" fill="none" xmlns="http://www.w3.org/2000/svg">
<path fill-rule="evenodd" clip-rule="evenodd" d="M4.68341 4.01677V3.0001C4.68341 2.08883 5.42214 1.3501 6.33341 1.3501H9.66674C10.578 1.3501 11.3167 2.08883 11.3167 3.0001V4.01677H13.0001C13.9114 4.01677 14.6501 4.7555 14.6501 5.66677L14.6501 9.33343L14.6501 13.0001C14.6501 13.9114 13.9114 14.6501 13.0001 14.6501H3.0001C2.08883 14.6501 1.3501 13.9114 1.3501 13.0001V5.66677C1.3501 4.7555 2.08883 4.01677 3.0001 4.01677H4.68341ZM5.98341 3.0001C5.98341 2.8068 6.14011 2.6501 6.33341 2.6501H9.66674C9.86004 2.6501 10.0167 2.8068 10.0167 3.0001V4.01677H5.98341V3.0001ZM13.3501 5.66677V8.68343H2.6501V5.66677C2.6501 5.47347 2.8068 5.31677 3.0001 5.31677H13.0001C13.1934 5.31677 13.3501 5.47347 13.3501 5.66677ZM10.0168 10.6668V9.98343H5.98341V10.6668C5.98341 11.0257 5.6924 11.3168 5.33341 11.3168C4.97443 11.3168 4.68341 11.0257 4.68341 10.6668V9.98343H2.6501V13.0001C2.6501 13.1934 2.8068 13.3501 3.0001 13.3501H13.0001C13.1934 13.3501 13.3501 13.1934 13.3501 13.0001V9.98343H11.3168V10.6668C11.3168 11.0257 11.0258 11.3168 10.6668 11.3168C10.3078 11.3168 10.0168 11.0257 10.0168 10.6668Z" fill="black"/>
</svg>

<svg xmlns="http://www.w3.org/2000/svg" width="16" height="16" fill="none" viewBox="0 0 16 16"><path fill="#000" fill-rule="evenodd" d="M4.6833 4.0167V3c0-.9113.7387-1.65 1.65-1.65h3.3333c.9113 0 1.65.7387 1.65 1.65v1.0167H13c.9112 0 1.65.7387 1.65 1.65V13c0 .9113-.7388 1.65-1.65 1.65H3c-.9113 0-1.65-.7388-1.65-1.65V5.6667c0-.9113.7387-1.65 1.65-1.65zM5.9833 3a.35.35 0 0 1 .35-.35h3.3333a.35.35 0 0 1 .35.35v1.0167H5.9833zM13.35 5.6666v3.0167H2.65V5.6667a.35.35 0 0 1 .35-.35h10a.35.35 0 0 1 .35.35m-3.3333 5v-.6833H5.9833v.6833a.65.65 0 1 1-1.3 0v-.6833H2.65V13a.35.35 0 0 0 .35.35h10a.35.35 0 0 0 .35-.35V9.9833h-2.0333v.6833a.65.65 0 0 1-1.3 0"/></svg>
